X:2993
L:1/8
Q:1/8=120
M:2/2
K:G
 D | G3 F GBAc | B2 GF GABc | d3 e dedc | A2 AG AFGA | B>AGF GBAc | dBGF GABc | dBec B2 A2 | 
 G2 GF G2 z2 || c3 B cde=f | d2 GF G2 z2 | d3 c de=fg | e2 cB c2 ge | a2 a=f d2 fd | g2 ge c2 ec | 
 A2 =fd dccB | c2 cB c^FGA | BAGF GBAc | dBGF GABc | dBec B2 A2 | G2 GF G2- | G8 |]

